common/icons/svgs/copy_email.svg

<svg xmlns="http://www.w3.org/2000/svg" width="24" height="24" viewBox="0 0 24 24">
  <g fill="none" fill-rule="evenodd" transform="translate(-24 -150)">
    <rect width="504" height="450" fill="#FFF"/>
    <g transform="translate(24 150)">
      <rect width="24" height="24"/>
      <path fill="#000" fill-rule="nonzero" d="M9.09,6.43 C4.43241024,6.36882644 0.605825652,10.0924737 0.54,14.75 C0.611284623,19.4035994 4.43625713,23.1212042 9.09,23.06 C10.5380527,23.0760464 11.9674492,22.7324415 13.25,22.06 L12.25,19.98 C10.3610612,21.1117094 8.01215937,21.150945 6.08647719,20.0829543 C4.160795,19.0149635 2.95024818,17.001644 2.91,14.8 C2.91,11.3951645 5.67016452,8.635 9.075,8.635 C12.4798355,8.635 15.24,11.3951645 15.24,14.8 C15.24,16.41 14.65,17.46 13.68,17.46 C13.16,17.46 12.68,17.09 12.68,15.99 L12.68,13.5 C12.68,11.5 11.25,10.5 9.32,10.5 C8.10131565,10.5395483 6.9118819,10.8833153 5.86,11.5 L6.77,13.27 C7.58890111,12.9132802 8.46739235,12.7131606 9.36,12.68 C9.71,12.68 10.36,12.77 10.36,13.26 C10.36,13.75 9.82,13.72 9.45,13.72 C7.79,13.72 5.53,13.93 5.53,16.27 C5.49,18.11 7,19 8.69,19 C9.77,19 10.35,18.62 10.98,18.62 C11.2449853,18.6077395 11.5039846,18.701267 11.7,18.88 C12.2586945,19.3533405 12.9677527,19.6121468 13.7,19.61 C15.89,19.61 17.58,17.69 17.58,14.73 C17.503339,10.1039508 13.7165993,6.40195558 9.09,6.43 Z M8.88,17.06 C8.23,17.06 7.88,16.71 7.88,16.34 C7.88,15.97 8.28,15.54 9.03,15.54 C9.43791517,15.5505807 9.84527821,15.5034478 10.24,15.4 L10.24,15.92 C10.2573434,16.2337101 10.3042174,16.5450872 10.38,16.85 C9.88844571,16.970845 9.38584193,17.0412096 8.88,17.06 Z M22.88,4.45 L20.22,4.45 L20.22,1.85 C20.22,1.29771525 19.7722847,0.85 19.22,0.85 C18.6677153,0.85 18.22,1.29771525 18.22,1.85 L18.22,4.46 L15.61,4.46 C15.0577153,4.46 14.61,4.90771525 14.61,5.46 C14.61,6.01228475 15.0577153,6.46 15.61,6.46 L18.22,6.46 L18.22,9.07 C18.22,9.62228475 18.6677153,10.07 19.22,10.07 C19.7722847,10.07 20.22,9.62228475 20.22,9.07 L20.22,6.46 L22.83,6.46 C23.3822847,6.46 23.83,6.01228475 23.83,5.46 C23.83,4.90771525 23.3822847,4.46 22.83,4.46 L22.88,4.45 Z"/>
    </g>
  </g>
</svg>

<svg xmlns="http://www.w3.org/2000/svg" viewbox="0 0 24 24"><path class="icon__shape" fill-rule="nonzero" d="M9.09 6.43a8.44 8.44 0 0 0-8.55 8.32 8.44 8.44 0 0 0 8.55 8.31 8.75 8.75 0 0 0 4.16-1l-1-2.08a6.17 6.17 0 0 1-9.34-5.18 6.165 6.165 0 1 1 12.33 0c0 1.61-.59 2.66-1.56 2.66-.52 0-1-.37-1-1.47V13.5c0-2-1.43-3-3.36-3a7.31 7.31 0 0 0-3.46 1l.91 1.77a7.15 7.15 0 0 1 2.59-.59c.35 0 1 .09 1 .58s-.54.46-.91.46c-1.66 0-3.92.21-3.92 2.55C5.49 18.11 7 19 8.69 19c1.08 0 1.66-.38 2.29-.38a1 1 0 0 1 .72.26 3.08 3.08 0 0 0 2 .73c2.19 0 3.88-1.92 3.88-4.88a8.44 8.44 0 0 0-8.49-8.3zm-.21 10.63c-.65 0-1-.35-1-.72s.4-.8 1.15-.8a4.33 4.33 0 0 0 1.21-.14v.52a5 5 0 0 0 .14.93 7.44 7.44 0 0 1-1.5.21zm14-12.61h-2.66v-2.6a1 1 0 0 0-2 0v2.61h-2.61a1 1 0 0 0 0 2h2.61v2.61a1 1 0 0 0 2 0V6.46h2.61a1 1 0 0 0 0-2l.05-.01z"/></svg>
